X:1
T:Lo, what a glorious sight appears
T:Lo, what a glorious sight appears - Vision (George Gay)
C:George Gay
Z:p17, Sacred Music,
Z:2nd ed., London: (1828)
%%score [ 1 2 3 4 ]
L:1/8
M:3/4
K:D
V:1 treble nm="SOPRANO" snm="S."
V:2 treble nm="ALTO" snm="A."
V:3 treble-8 transpose=-12 nm="TENOR" snm="T."
V:4 bass nm="BASS" snm="B."
V:1
 A2 | (D>E F2) A2 | (d>e f2) d2 | (e2 d2) c2 | d4 d2 | (G>A B2) d2 | (=c2 B2) A2 | B4 G2 | %8
w: At-|tend- * * ing|an- * * gels|shout _ for|joy, And|the _ _ bright|ar- * mies|sing, ‘Mor-|
w: Lo,|what _ _ a|glo- * * rious|sight _ ap-|pears To|our _ _ be-|lie- * ving|eyes: The|
w: From|the _ _ third|heav’n _ _ where|God _ re-|sides, That|ho- * * ly,|hap- * py|place, The|
 (D>E F2) A2 | D4 d2 | (c>B A2) ^G2 | A4 E2 | (F2 G2) A2 | (AF BA) (GF) | (F2 !fermata!E2) A2 | %15
w: tals, _ _ be-|hold the|sac- * * red|seat Of|your _ de-|scend- * * * ing _|King, _ of|
w: earth _ _ and|seas are|pass’d _ _ a-|way, And|the _ old|roll- * * * ing _|skies, _ and|
w: new _ _ Je-|ru- sa-|lem _ _ comes|down, A-|dorn’d _ with|shin- * * * ing _|grace, _ a-|
 (B2 c2) d2 | (cA Bc de/f/ | e2 d2) c2 | d4 |] %19
w: your _ de-|scend- * * * * * *|* * ing|King.’|
w: the _ old|roll- * * * * * *|* * ing|skies.|
w: dorn’d _ with|shin- * * * * * *|* * ing|grace.|
V:2
 F2 | D4 E2 | (D2 A2) A2 | (G2 F2) E2 | F4 D2 | D4 G2 | E2 D4 | D4 D2 | D4 E2 | (D2 A,2) F2 | %10
w: At-|tend- ing|an- * gels|shout _ for|joy, And|the bright|ar- mies|sing, ‘Mor-|tals, be-|hold _ the|
w: Lo,|what a|glo- * rious|sight _ ap-|pears To|our be-|lie- ving|eyes: The|earth and|seas _ are|
w: From|the third|heav’n _ where|God _ re-|sides, That|ho- ly,|hap- py|place, The|new Je-|ru- * sa-|
 E4 E2 | E4 z2 | z6 | z6 | z4 !fermata!C2 | D2 A4 | (AG FE DA | G2 F2) E2 | F4 |] %19
w: sac- red|seat|||Of|your de-|scend- * * * * *|* * ing|King.’|
w: pass’d a-|way,|||And|the old|roll- * * * * *|* * ing|skies.|
w: lem comes|down,|||A-|dorn’d with|shin- * * * * *|* * ing|grace.|
V:3
 D2 | (F>G A2) A2 | (F2 d2) d2 | (B2 A2) A2 | A4 A2 | (B>A G2) G2 | G4 F2 | G4 B2 | A4 G2 | F4 A2 | %10
w: At-|tend- * * ing|an- * gels|shout _ for|joy, And|the _ _ bright|ar- mies|sing, ‘Mor-|tals, be-|hold the|
w: Lo,|what _ _ a|glo- * rious|sight _ ap-|pears To|our _ _ be-|lie- ving|eyes: The|earth and|seas are|
w: From|the _ _ third|heav’n _ where|God _ re-|sides, That|ho- * * ly,|hap- py|place, The|new Je-|ru- sa-|
 (A>B c2) d2 | c4 z2 | z6 | z6 | z4 !fermata!A2 | (d2 e2) d2 | (Ae dc BA | B2) A4 | A4 |] %19
w: sac- * * red|seat|||Of|your _ de-|scend- * * * * *|* ing|King.’|
w: pass’d _ _ a-|way,|||And|the _ old|roll- * * * * *|* ing|skies.|
w: lem _ _ comes|down,|||A-|dorn’d _ with|shin- * * * * *|* ing|grace.|
V:4
 D,2 | D,4 C,2 | (B,,>C, D,2) F,2 | (G,2 A,2) A,,2 | D,4 F,2 | G,4 B,,2 | =C,2 D,4 | G,,4 G,2 | %8
w: At-|tend- ing|an- * * gels|shout _ for|joy, And|the bright|ar- mies|sing, ‘Mor-|
w: Lo,|what a|glo- * * rious|sight _ ap-|pears To|our be-|lie- ving|eyes: The|
w: From|the third|heav’n _ _ where|God _ re-|sides, That|ho- ly,|hap- py|place, The|
 (F,>E, D,2) C,2 | D,4 D,2 | E,4 E,2 | A,,4 A,,2 | (D,2 E,2) F,2 | (C,D, G,F,) (E,D,) | %14
w: tals, _ _ be-|hold the|sac- red|seat Of|your _ de-|scend- * * * ing _|
w: earth _ _ and|seas are|pass’d a-|way, And|the _ old|roll- * * * ing _|
w: new _ _ Je-|ru- sa-|lem comes|down, A-|dorn’d _ with|shin- * * * ing _|
"^Notes:The order of parts in the source is Alto - Tenor - Soprano - Bass, with the Alto and Tenor parts notated in the trebleclef an octave above sounding pitch. The Soprano and Bass parts are bracketed together in the source, with smallnotes printed between to fill in the harmony of a keyboard accompaniment doubling the inner voices: thisaccompaniment has been omitted from the present edition. The only indications of the text in the source are thereference ‘Hy: 21 Bk: 1 Dr. W.’ and the opening words ‘Lo what a glorious sight &c.’: four verses of this text havebeen underlaid editorially." !fermata!A,4 A,2 | %15
w: King, of|
w: skies, and|
w: grace, a-|
 G,4 F,2 | (E,C, D,A, B,F, | G,2 A,2) A,,2 | D,4 |] %19
w: your de-|scend- * * * * *|* * ing|King.’|
w: the old|roll- * * * * *|* * ing|skies.|
w: dorn’d with|shin- * * * * *|* * ing|grace.|

